X:1
T:Title
%%score { ( 1 3 5 ) | ( 2 4 ) }
L:1/8
Q:1/4=75
M:3/8
K:Eb
V:1 treble nm="Grand Piano"
V:3 treble 
V:5 treble 
V:2 bass 
V:4 bass 
V:1
 [EG][B,EG][B,FA] | z [GB]2 | [GB][Ac][B,GB] | [EG]2 z | [DF][DF][EG] | [FA]/B/ [FA]2 | %6
w: John~R.~Sweney * *||||||
 [FA][GB][FA] | [EG]2 z | [GB][Ge][Ge] | z z/ d/[Ac] | [GB][Ac][B,GB] | [EG]2 z | [DF][EG][FA] | %13
w: |||||||
 [Bd]>c[GB] | [GB][FA][DF] | [G,E]3 |] %16
w: |||
V:2
 E,G,G, | z/[K:treble] A/G,[K:bass]G, | E,[G,B,]G, | B,,B,B, | B,,B,B, | %5
 z/[K:treble] G/B,[K:bass]B, | B,,B,B, | E,G,G, | E,[G,B,][G,B,] | E, z/[K:treble] B/[G,B,] | %10
 E,[G,B,]G, | E,G,G, | B,,B,B, | z B,[K:treble] z | B,,B,A, | E,3 |] %16
V:3
 x3 | [GB]/c/B,B, | x3 | x3 | x3 | x3 | x3 | z B,B, | x3 | [Ge]2 z | x3 | z B,B, | x3 | x3 | x3 | %15
 x3 |] %16
V:4
 x3 | E,[K:treble] z[K:bass] z | x3 | x3 | x3 | B,,[K:treble] z[K:bass] z | x3 | x3 | x3 | %9
 z G,[K:treble] z | x3 | x3 | x3 | B,, z/[K:treble] A/B, | x3 | x3 |] %16
V:5
 x3 | x3 | x3 | x3 | x3 | x3 | x3 | x3 | x3 | z B, z | x3 | x3 | x3 | x3 | x3 | x3 |] %16

